X:2052
T:Syen
C:Kjell-Erik Eriksson (?)
R:Marsch
D:Hippa ([[Grupper/Hoven Droven]])
M:4/4
L:1/8
K:G
D FE/D/|:"C"E3 D EFGc|"G"B6 B2|"D"ABAF D2 cA|"G"BcBA G2 GF/D/|
"C"E3 D EFGc|"G"B6 B2|"D"ABAF D2 EF|1 "G"G4- GD FE/D/:|2 "G"G4 zABd||
"G"g3 a g2 (3edB|"C/G"c6 B2|"D/G"A3 G F2 d2|"G"BcBA G2 "G/B"GF/D/|
"C"E3 D EFGc|"G"B6 B2|"D"ABAF D2 EF|"G"G4 z|]
(:musicend:)

[[!Andrastämma]], i stort sett plankad från skivan. Rytmiken i upptakterna varieras lite grann.

(:music:)
